svg/UnitedNations-Flags/flag-br.svg

<?xml version="1.0" encoding="UTF-8" standalone="no"?>
<svg height="256" id="svg2432" inkscape:output_extension="org.inkscape.output.svg.inkscape" inkscape:version="0.46" sodipodi:docname="Flag_of_Brazil.svg" sodipodi:version="0.32" version="1.0" viewBox="-2100 -1470 4200 2940" width="256" xmlns="http://www.w3.org/2000/svg" xmlns:cc="http://creativecommons.org/ns#" xmlns:dc="http://purl.org/dc/elements/1.1/" xmlns:inkscape="http://www.inkscape.org/namespaces/inkscape" xmlns:rdf="http://www.w3.org/1999/02/22-rdf-syntax-ns#" xmlns:sodipodi="http://sodipodi.sourceforge.net/DTD/sodipodi-0.dtd" xmlns:svg="http://www.w3.org/2000/svg" xmlns:xlink="http://www.w3.org/1999/xlink">
  <metadata>
    <rdf:RDF xmlns:cc="http://web.resource.org/cc/" xmlns:dc="http://purl.org/dc/elements/1.1/" xmlns:rdf="http://www.w3.org/1999/02/22-rdf-syntax-ns#">
      <cc:Work rdf:about="">
        <dc:title></dc:title>
        <dc:description></dc:description>
        <dc:subject>
          <rdf:Bag>
            <rdf:li>unsorted</rdf:li>
          </rdf:Bag>
        </dc:subject>
        <dc:publisher>
          <cc:Agent rdf:about="http://www.openclipart.org/">
            <dc:title>Open Clip Art Library, Source: Wikimedia Commons, Source: Wikimedia Commons, Source: Wikimedia Commons, Source: Wikimedia Commons</dc:title>
          </cc:Agent>
        </dc:publisher>
        <dc:creator>
          <cc:Agent>
            <dc:title></dc:title>
          </cc:Agent>
        </dc:creator>
        <dc:rights>
          <cc:Agent>
            <dc:title></dc:title>
          </cc:Agent>
        </dc:rights>
        <dc:date></dc:date>
        <dc:format>image/svg+xml</dc:format>
        <dc:type rdf:resource="http://purl.org/dc/dcmitype/StillImage"/>
        <cc:license rdf:resource="http://en.wikipedia.org/wiki/Public_domain"/>
        <dc:language>en</dc:language>
      </cc:Work>
    </rdf:RDF>
  </metadata>
  <sodipodi:namedview bordercolor="#666666" borderopacity="1.0" gridtolerance="10.0" guidetolerance="10.0" id="base" inkscape:current-layer="svg2432" inkscape:cx="360" inkscape:cy="252" inkscape:pageopacity="0.0" inkscape:pageshadow="2" inkscape:window-height="674" inkscape:window-width="640" inkscape:window-x="106" inkscape:window-y="194" inkscape:zoom="0.77638889" objecttolerance="10.0" pagecolor="#ffffff" showgrid="false"/>
  <title id="title2434">Flag of Brazil</title>
  <defs id="defs2436">
    <inkscape:perspective id="perspective2555" inkscape:persp3d-origin="360 : 168 : 1" inkscape:vp_x="0 : 252 : 1" inkscape:vp_y="0 : 1000 : 0" inkscape:vp_z="720 : 252 : 1" sodipodi:type="inkscape:persp3d"/>
    <path d="M 0,0 C 17.39697,-1.1836191e-15 31.5,-15.670034 31.5,-35 C 31.5,-54.329966 17.39697,-70 1.9288187e-15,-70 C -17.39697,-70 -31.5,-54.329966 -31.5,-35 C -31.5,-15.670034 -17.39697,-3.5508572e-15 -5.7864561e-15,0 M 0,-13 C 10.217268,-13 18.5,-22.849736 18.5,-35 C 18.5,-47.150264 10.217268,-57 1.1327983e-15,-57 C -10.217268,-57 -18.5,-47.150264 -18.5,-35 C -18.5,-22.849736 -10.217268,-13 -3.3983949e-15,-13" id="O" style="fill-rule:evenodd"/>
    <g id="R">
      <use height="2940" id="use2440" width="4200" x="0" xlink:href="#P" y="0"/>
      <path d="M 28,0 C 28,-10 28,-32 13,-32 L -6,-32 C 16,-32 16,-10 16,0" id="path2442"/>
    </g>
    <path d="M -31.5,0 L 1.5,0 C 18.068542,-1.0145306e-15 31.5,-13.431458 31.5,-30 L 31.5,-40 C 31.5,-56.568542 18.068542,-70 1.5,-70 L -31.5,-70 L -31.5,0 z M -18.5,-13 L 0.5,-13 C 10.99341,-13 19.5,-21.50659 19.5,-32 L 19.5,-38 C 19.5,-48.49341 10.99341,-57 0.5,-57 L -18.5,-57 L -18.5,-13 z" id="D" style="fill-rule:evenodd"/>
    <path d="M 0,0 L 63,0 L 63,-13 L 12,-13 L 12,-31 L 52,-31 L 52,-43 L 12,-43 L 12,-57 L 60,-57 L 60,-70 L 0,-70 L 0,0 z" id="E" transform="translate(-31.5,0)"/>
    <path d="M -31.5,0 L -19.5,0 L -19.5,-48 L -5.5,0 L 5.5,0 L 19.5,-48 L 19.5,0 L 31.5,0 L 31.5,-70 L 14,-70 L 0,-22 L -14,-70 L -31.5,-70 L -31.5,0 z" id="M"/>
    <path d="M -26.25,0 L 26.25,0 L 26.25,-12 L -14.25,-12 L -14.25,-28 L 18.75,-28 L 18.75,-40 L -14.25,-40 L -14.25,-51 L 25,-51 L 25,-63 L -26.25,-63 L -26.25,0 z" id="E_"/>
    <path d="M -31.5,0 L -18.5,0 L -18.5,-26 L 9.5,-26 C 21.650264,-26 31.5,-35.849736 31.5,-48 C 31.5,-60.150264 21.650264,-70 9.5,-70 L -30.5,-70 L -31.5,0 z M -18.5,-39 L 8.5,-39 C 13.470563,-39 17.5,-43.029437 17.5,-48 C 17.5,-52.970563 13.470563,-57 8.5,-57 L -18.5,-57 L -18.5,-39 z" id="P" style="fill-rule:evenodd"/>
    <g id="G">
      <clipPath id="gcut">
        <path d="M -31.5,0 L -31.5,-70 L 31.5,-70 L 31.5,0 L -31.5,0 z M 0,-47 L 0,-35 L 31.5,-35 L 31.5,-47 L 0,-47 z" id="path2451"/>
      </clipPath>
      <use clip-path="url(#gcut)" height="2940" id="use2453" width="4200" x="0" xlink:href="#O" y="0"/>
      <rect height="10" id="rect2455" width="26.5" x="5" y="-35"/>
      <rect height="35" id="rect2457" width="10" x="21.5" y="-35"/>
    </g>
    <path d="M -15.75,-22 C -15.75,-15 -9,-11.5 1,-11.5 C 11,-11.5 15.74,-14.75 15.75,-19.25 C 15.75,-33.5 -31,-24.5 -30.75,-49.5 C -30.5,-71 -6,-70 3,-70 C 12,-70 29,-66 28.75,-48.75 L 13.5,-48.75 C 13.5,-56.25 6.5,-59 -1.5,-59 C -9.25,-59 -14.75,-57.75 -14.75,-50.5 C -15,-38.75 31.5,-46.5 31.5,-21.75 C 31.5,-3.5 13.5,0 0,0 C -11.5,0 -31.55,-4.5 -31.5,-22 L -15.75,-22 z" id="S"/>
    <g id="star">
      <g id="cone">
        <polygon id="triangle" points="0,0 0,1 0.5,1 0,0 " transform="matrix(0.9510565,0.309017,-0.309017,0.9510565,0,-1)"/>
        <use height="2940" id="use2463" transform="scale(-1,1)" width="4200" x="0" xlink:href="#triangle" y="0"/>
      </g>
      <use height="2940" id="use2465" transform="matrix(0.309017,0.9510565,-0.9510565,0.309017,0,0)" width="4200" x="0" xlink:href="#cone" y="0"/>
      <use height="2940" id="use2467" transform="matrix(0.309017,-0.9510565,0.9510565,0.309017,0,0)" width="4200" x="0" xlink:href="#cone" y="0"/>
      <use height="2940" id="use2469" transform="matrix(-0.809017,0.5877853,-0.5877853,-0.809017,0,0)" width="4200" x="0" xlink:href="#cone" y="0"/>
      <use height="2940" id="use2471" transform="matrix(-0.809017,-0.5877853,0.5877853,-0.809017,0,0)" width="4200" x="0" xlink:href="#cone" y="0"/>
    </g>
    <use height="2940" id="star1" transform="scale(31.5,31.5)" width="4200" x="0" xlink:href="#star" y="0"/>
    <use height="2940" id="star2" transform="scale(26.25,26.25)" width="4200" x="0" xlink:href="#star" y="0"/>
    <use height="2940" id="star3" transform="scale(21,21)" width="4200" x="0" xlink:href="#star" y="0"/>
    <use height="2940" id="star4" transform="scale(15,15)" width="4200" x="0" xlink:href="#star" y="0"/>
    <use height="2940" id="star5" transform="scale(10.5,10.5)" width="4200" x="0" xlink:href="#star" y="0"/>
  </defs>
  <rect height="2940" id="field" style="fill:#00923f" width="4200" x="-2100" y="-1470"/>
  <path d="M -1743,0 L 0,1113 L 1743,0 L 0,-1113 L -1743,0 z" id="rhombus" style="fill:#f8c300"/>
  <circle cx="0" cy="0" id="circle" r="735" sodipodi:cx="0" sodipodi:cy="0" sodipodi:rx="735" sodipodi:ry="735" style="fill:#28166f"/>
  <clipPath id="clipcircle">
    <use height="2940" id="use2482" width="4200" x="0" xlink:href="#circle" y="0"/>
  </clipPath>
  <path clip-path="url(#clipcircle)" d="M -2205,1470 C -2205,484.17173 -1405.8283,-314.99997 -420,-314.99997 C 565.82827,-314.99997 1365,484.17173 1365,1470 L 1260,1470 C 1260,542.16162 507.83838,-210 -420,-210 C -1347.8384,-210 -2100,542.16162 -2100,1470 L -2205,1470 z" id="band" style="fill:#ffffff"/>
  <g id="g2485" style="fill:#00923f" transform="translate(-420,1470)">
    <g id="ORDEM" transform="matrix(0.9925462,-0.1218693,0.1218693,0.9925462,0,0)">
      <use height="2940" id="use2488" transform="translate(0,-1697.5)" width="4200" x="0" xlink:href="#O" y="0"/>
      <use height="2940" id="use2490" transform="matrix(0.9986295,5.2335956e-2,-5.2335956e-2,0.9986295,88.840286,-1695.1736)" width="4200" x="0" xlink:href="#R" y="0"/>
      <use height="2940" id="use2492" transform="matrix(0.9945219,0.1045285,-0.1045285,0.9945219,177.43707,-1688.2009)" width="4200" x="0" xlink:href="#D" y="0"/>
      <use height="2940" id="use2494" transform="matrix(0.9876883,0.1564345,-0.1564345,0.9876883,265.5475,-1676.601)" width="4200" x="0" xlink:href="#E" y="0"/>
      <use height="2940" id="use2496" transform="matrix(0.9781476,0.2079117,-0.2079117,0.9781476,352.9301,-1660.4056)" width="4200" x="0" xlink:href="#M" y="0"/>
    </g>
    <use height="2940" id="use2498" transform="matrix(0.9855561,0.1693495,-0.1693495,0.9855561,287.47078,-1672.9814)" width="4200" x="0" xlink:href="#E_" y="0"/>
    <g id="PROGRESSO" transform="matrix(0.9681476,0.25038,-0.25038,0.9681476,0,0)">
      <use height="2940" id="use2501" transform="translate(0,-1697.5)" width="4200" x="0" xlink:href="#P" y="0"/>
      <use height="2940" id="use2503" transform="matrix(0.9986295,5.2335956e-2,-5.2335956e-2,0.9986295,88.840286,-1695.1736)" width="4200" x="0" xlink:href="#R" y="0"/>
      <use height="2940" id="use2505" transform="matrix(0.9945219,0.1045285,-0.1045285,0.9945219,177.43707,-1688.2009)" width="4200" x="0" xlink:href="#O" y="0"/>
      <use height="2940" id="use2507" transform="matrix(0.9876883,0.1564345,-0.1564345,0.9876883,265.5475,-1676.601)" width="4200" x="0" xlink:href="#G" y="0"/>
      <use height="2940" id="use2509" transform="matrix(0.9781476,0.2079117,-0.2079117,0.9781476,352.9301,-1660.4056)" width="4200" x="0" xlink:href="#R" y="0"/>
      <use height="2940" id="use2511" transform="matrix(0.9659258,0.258819,-0.258819,0.9659258,439.34533,-1639.6591)" width="4200" x="0" xlink:href="#E" y="0"/>
      <use height="2940" id="use2513" transform="matrix(0.9510565,0.309017,-0.309017,0.9510565,524.55635,-1614.4184)" width="4200" x="0" xlink:href="#S" y="0"/>
      <use height="2940" id="use2515" transform="matrix(0.9335804,0.3583679,-0.3583679,0.9335804,608.32959,-1584.7528)" width="4200" x="0" xlink:href="#S" y="0"/>
      <use height="2940" id="use2517" transform="matrix(0.9135455,0.4067366,-0.4067366,0.9135455,690.43545,-1550.7434)" width="4200" x="0" xlink:href="#O" y="0"/>
    </g>
  </g>
  <g id="stars" style="fill:#ffffff">
    <use height="2940" id="Alpha_Canis_Minoris" transform="translate(-600,-132)" width="4200" x="0" xlink:href="#star1" y="0"/>
    <g id="Canis_Majoris">
      <use height="2940" id="Alpha_Canis_Majoris" transform="translate(-535,177)" width="4200" x="0" xlink:href="#star1" y="0"/>
      <use height="2940" id="Beta_Canis_Majoris" transform="translate(-625,243)" width="4200" x="0" xlink:href="#star3" y="0"/>
      <use height="2940" id="Gamma_Canis_Majoris" transform="translate(-463,132)" width="4200" x="0" xlink:href="#star4" y="0"/>
      <use height="2940" id="Delta_Canis_Majoris" transform="translate(-382,250)" width="4200" x="0" xlink:href="#star2" y="0"/>
      <use height="2940" id="Epsilon_Canis_Majoris" transform="translate(-404,323)" width="4200" x="0" xlink:href="#star2" y="0"/>
    </g>
    <use height="2940" id="Alpha_Virginis" transform="translate(228,-228)" width="4200" x="0" xlink:href="#star1" y="0"/>
    <g id="Scorpio">
      <use height="2940" id="Alpha_Scorpii" transform="translate(515,258)" width="4200" x="0" xlink:href="#star1" y="0"/>
      <use height="2940" id="Beta_Scorpii" transform="translate(617,265)" width="4200" x="0" xlink:href="#star3" y="0"/>
      <use height="2940" id="Epsilon_Scorpii" transform="translate(545,323)" width="4200" x="0" xlink:href="#star2" y="0"/>
      <use height="2940" id="Theta_Scorpii" transform="translate(368,477)" width="4200" x="0" xlink:href="#star2" y="0"/>
      <use height="2940" id="Iota_Scorpii" transform="translate(367,551)" width="4200" x="0" xlink:href="#star3" y="0"/>
      <use height="2940" id="Kappa_Scorpii" transform="translate(441,419)" width="4200" x="0" xlink:href="#star3" y="0"/>
      <use height="2940" id="Lambda_Scorpii" transform="translate(500,382)" width="4200" x="0" xlink:href="#star2" y="0"/>
      <use height="2940" id="Mu_Scorpii" transform="translate(365,405)" width="4200" x="0" xlink:href="#star3" y="0"/>
    </g>
    <g id="Hydra">
      <use height="2940" id="Alpha_Hydrae" transform="translate(-280,30)" width="4200" x="0" xlink:href="#star2" y="0"/>
      <use height="2940" id="Gamma_Hydrae" transform="translate(200,-37)" width="4200" x="0" xlink:href="#star3" y="0"/>
    </g>
    <g id="Crux">
      <use height="2940" id="Alpha_Crucis" transform="translate(0,330)" width="4200" x="0" xlink:href="#star1" y="0"/>
      <use height="2940" id="Beta_Crucis" transform="translate(85,184)" width="4200" x="0" xlink:href="#star2" y="0"/>
      <use height="2940" id="Gamma_Crucis" transform="translate(0,118)" width="4200" x="0" xlink:href="#star2" y="0"/>
      <use height="2940" id="Delta_Crucis" transform="translate(-74,184)" width="4200" x="0" xlink:href="#star3" y="0"/>
      <use height="2940" id="Epsilon_Crucis" transform="translate(-37,235)" width="4200" x="0" xlink:href="#star4" y="0"/>
    </g>
    <g id="Triangulum_Australe">
      <use height="2940" id="Alpha_Trianguli_Australe" transform="translate(220,495)" width="4200" x="0" xlink:href="#star2" y="0"/>
      <use height="2940" id="Beta_Trianguli_Australe" transform="translate(283,430)" width="4200" x="0" xlink:href="#star3" y="0"/>
      <use height="2940" id="Gamma_Trianguli_Australe" transform="translate(162,412)" width="4200" x="0" xlink:href="#star3" y="0"/>
    </g>
    <use height="2940" id="Alpha_Carinae" transform="translate(-295,390)" width="4200" x="0" xlink:href="#star1" y="0"/>
    <use height="2940" id="Sigma_Octantis" transform="translate(0,575)" width="4200" x="0" xlink:href="#star5" y="0"/>
  </g>
</svg>

<svg height="256" viewBox="-2100 -1470 4200 2940" width="256" xmlns="http://www.w3.org/2000/svg" xmlns:xlink="http://www.w3.org/1999/xlink"><defs><path d="m0 0c17.397 0 31.5-15.67 31.5-35 0-19.33-14.1-35-31.5-35-17.397 0-31.5 15.67-31.5 35 0 19.33 14.1 35 31.5 35m0-13c10.217 0 18.5-9.85 18.5-22 0-12.15-8.283-22-18.5-22-10.217 0-18.5 9.85-18.5 22 0 12.15 8.283 22 18.5 22" id="1" fill-rule="evenodd"/><g id="2"><use height="2940" width="4200" xlink:href="#7"/><path d="m28 0c0-10 0-32-15-32h-19c22 0 22 22 22 32"/></g><path d="m-31.5 0h33c16.569 0 30-13.431 30-30v-10c0-16.569-13.431-30-30-30h-33v70m13-13h19c10.493 0 19-8.507 19-19v-6c0-10.493-8.507-19-19-19h-19v44" id="3" fill-rule="evenodd"/><path d="m0 0h63v-13h-51v-18h40v-12h-40v-14h48v-13h-60v70" id="4" transform="translate(-31.5)"/><path d="m-31.5 0h12v-48l14 48h11l14-48v48h12v-70h-17.5l-14 48-14-48h-17.5v70" id="5"/><path d="m-26.25 0h52.5v-12h-40.5v-16h33v-12h-33v-11h39.25v-12h-51.25v63" id="6"/><path d="m-31.5 0h13v-26h28c12.15 0 22-9.85 22-22 0-12.15-9.85-22-22-22h-40l-1 70m13-39h27c4.971 0 9-4.03 9-9 0-4.971-4.03-9-9-9h-27v18" id="7" fill-rule="evenodd"/><g id="8"><use clip-path="url(#H)" height="2940" width="4200" xlink:href="#1"/><path d="m5-35h26.5v10h-26.5z"/><path d="m21.5-35h10v35h-10z"/></g><path d="m-15.75-22c0 7 6.75 10.5 16.75 10.5 10 0 14.74-3.25 14.75-7.75 0-14.25-46.75-5.25-46.5-30.25.25-21.5 24.75-20.5 33.75-20.5 9 0 26 4 25.75 21.25h-15.25c0-7.5-7-10.25-15-10.25-7.75 0-13.25 1.25-13.25 8.5-.25 11.75 46.25 4 46.25 28.75 0 18.25-18 21.75-31.5 21.75-11.5 0-31.55-4.5-31.5-22h15.75" id="9"/><g id="A"><g id="I"><path id="J" transform="matrix(.95106.30902-.30902.95106 0-1)" d="m0 0v1h.5l-.5-1"/><use height="2940" transform="scale(-1 1)" width="4200" xlink:href="#J"/></g><use height="2940" transform="matrix(.30902.95106-.95106.30902 0 0)" width="4200" xlink:href="#I"/><use height="2940" transform="matrix(.30902-.95106.95106.30902 0 0)" width="4200" xlink:href="#I"/><use height="2940" transform="matrix(-.80902.58779-.58779-.80902 0 0)" width="4200" xlink:href="#I"/><use height="2940" transform="matrix(-.80902-.58779.58779-.80902 0 0)" width="4200" xlink:href="#I"/></g><use height="2940" id="B" transform="scale(31.5)" width="4200" xlink:href="#A"/><use height="2940" id="C" transform="scale(26.25)" width="4200" xlink:href="#A"/><use height="2940" id="D" transform="scale(21)" width="4200" xlink:href="#A"/><use height="2940" id="E" transform="scale(15)" width="4200" xlink:href="#A"/><use height="2940" id="F" transform="scale(10.5)" width="4200" xlink:href="#A"/><clipPath id="G"><use xlink:href="#0"/></clipPath><clipPath id="H"><path d="m-31.5 0v-70h63v70h-63m31.5-47v12h31.5v-12h-31.5"/></clipPath></defs><path fill="#00923f" d="m-2100-1470h4200v2940h-4200z"/><path d="m-1743 0l1743 1113 1743-1113-1743-1113-1743 1113" fill="#f8c300"/><circle id="0" r="735" fill="#28166f"/><path clip-path="url(#G)" d="m-2205 1470c0-985.83 799.17-1785 1785-1785 985.83 0 1785 799.17 1785 1785h-105c0-927.84-752.16-1680-1680-1680-927.84 0-1680 752.16-1680 1680h-105" fill="#fff"/><g transform="translate(-420 1470)" fill="#00923f"><g transform="matrix(.99255-.12187.12187.99255 0 0)"><use height="2940" transform="translate(0-1697.5)" width="4200" xlink:href="#1"/><use height="2940" transform="matrix(.99863.05234-.05234.99863 88.84-1695.17)" width="4200" xlink:href="#2"/><use height="2940" transform="matrix(.99452.10453-.10453.99452 177.44-1688.2)" width="4200" xlink:href="#3"/><use height="2940" transform="matrix(.98769.15643-.15643.98769 265.55-1676.6)" width="4200" xlink:href="#4"/><use height="2940" transform="matrix(.97815.20791-.20791.97815 352.93-1660.41)" width="4200" xlink:href="#5"/></g><use height="2940" transform="matrix(.98556.16935-.16935.98556 287.47-1672.98)" width="4200" xlink:href="#6"/><g transform="matrix(.96815.25038-.25038.96815 0 0)"><use height="2940" transform="translate(0-1697.5)" width="4200" xlink:href="#7"/><use height="2940" transform="matrix(.99863.05234-.05234.99863 88.84-1695.17)" width="4200" xlink:href="#2"/><use height="2940" transform="matrix(.99452.10453-.10453.99452 177.44-1688.2)" width="4200" xlink:href="#1"/><use height="2940" transform="matrix(.98769.15643-.15643.98769 265.55-1676.6)" width="4200" xlink:href="#8"/><use height="2940" transform="matrix(.97815.20791-.20791.97815 352.93-1660.41)" width="4200" xlink:href="#2"/><use height="2940" transform="matrix(.96593.25882-.25882.96593 439.35-1639.66)" width="4200" xlink:href="#4"/><use height="2940" transform="matrix(.95106.30902-.30902.95106 524.56-1614.42)" width="4200" xlink:href="#9"/><use height="2940" transform="matrix(.93358.35837-.35837.93358 608.33-1584.75)" width="4200" xlink:href="#9"/><use height="2940" transform="matrix(.91355.40674-.40674.91355 690.44-1550.74)" width="4200" xlink:href="#1"/></g></g><g fill="#fff"><use height="2940" transform="translate(-600-132)" width="4200" xlink:href="#B"/><g><use height="2940" transform="translate(-535 177)" width="4200" xlink:href="#B"/><use height="2940" transform="translate(-625 243)" width="4200" xlink:href="#D"/><use height="2940" transform="translate(-463 132)" width="4200" xlink:href="#E"/><use height="2940" transform="translate(-382 250)" width="4200" xlink:href="#C"/><use height="2940" transform="translate(-404 323)" width="4200" xlink:href="#C"/></g><use height="2940" transform="translate(228-228)" width="4200" xlink:href="#B"/><g><use height="2940" transform="translate(515 258)" width="4200" xlink:href="#B"/><use height="2940" transform="translate(617 265)" width="4200" xlink:href="#D"/><use height="2940" transform="translate(545 323)" width="4200" xlink:href="#C"/><use height="2940" transform="translate(368 477)" width="4200" xlink:href="#C"/><use height="2940" transform="translate(367 551)" width="4200" xlink:href="#D"/><use height="2940" transform="translate(441 419)" width="4200" xlink:href="#D"/><use height="2940" transform="translate(500 382)" width="4200" xlink:href="#C"/><use height="2940" transform="translate(365 405)" width="4200" xlink:href="#D"/></g><g><use height="2940" transform="translate(-280 30)" width="4200" xlink:href="#C"/><use height="2940" transform="translate(200-37)" width="4200" xlink:href="#D"/></g><g><use height="2940" transform="translate(0 330)" width="4200" xlink:href="#B"/><use height="2940" transform="translate(85 184)" width="4200" xlink:href="#C"/><use height="2940" transform="translate(0 118)" width="4200" xlink:href="#C"/><use height="2940" transform="translate(-74 184)" width="4200" xlink:href="#D"/><use height="2940" transform="translate(-37 235)" width="4200" xlink:href="#E"/></g><g><use height="2940" transform="translate(220 495)" width="4200" xlink:href="#C"/><use height="2940" transform="translate(283 430)" width="4200" xlink:href="#D"/><use height="2940" transform="translate(162 412)" width="4200" xlink:href="#D"/></g><use height="2940" transform="translate(-295 390)" width="4200" xlink:href="#B"/><use height="2940" transform="translate(0 575)" width="4200" xlink:href="#F"/></g></svg>
